Simply-Red-Circles/scalable/places/folder-mega.svg

<svg xmlns="http://www.w3.org/2000/svg" width="48" height="48" viewBox="0 0 12.7 12.7"><path fill="#a02c2c" d="M6.344.07a6.29 6.29 0 0 0-6.29 6.29 6.29 6.29 0 0 0 6.29 6.288 6.29 6.29 0 0 0 6.29-6.289A6.29 6.29 0 0 0 6.343.07zm-.018.936a5.407 5.407 0 0 1 5.407 5.407 5.407 5.407 0 0 1-5.407 5.407A5.407 5.407 0 0 1 .92 6.413a5.407 5.407 0 0 1 5.407-5.407z"/><path fill="maroon" d="M2.69 3.65h1.541l2.157 1.926 2.08-1.926h1.541v5.393H8.47V5.96L6.544 7.5h-.386L4.232 5.96v3.081h-1.54z" opacity=".75"/></svg>

<?xml version="1.0" encoding="UTF-8" standalone="no"?>
<svg
   xmlns:dc="http://purl.org/dc/elements/1.1/"
   xmlns:cc="http://creativecommons.org/ns#"
   xmlns:rdf="http://www.w3.org/1999/02/22-rdf-syntax-ns#"
   xmlns:svg="http://www.w3.org/2000/svg"
   xmlns="http://www.w3.org/2000/svg"
   xmlns:sodipodi="http://sodipodi.sourceforge.net/DTD/sodipodi-0.dtd"
   xmlns:inkscape="http://www.inkscape.org/namespaces/inkscape"
   width="48"
   height="48"
   viewBox="0 0 12.7 12.7"
   version="1.1"
   id="svg6"
   sodipodi:docname="folder-mega.svg"
   inkscape:version="0.92.4 (5da689c313, 2019-01-14)">
  <metadata
     id="metadata12">
    <rdf:RDF>
      <cc:Work
         rdf:about="">
        <dc:format>image/svg+xml</dc:format>
        <dc:type
           rdf:resource="http://purl.org/dc/dcmitype/StillImage" />
        <dc:title></dc:title>
      </cc:Work>
    </rdf:RDF>
  </metadata>
  <defs
     id="defs10" />
  <sodipodi:namedview
     pagecolor="#ffffff"
     bordercolor="#666666"
     borderopacity="1"
     objecttolerance="10"
     gridtolerance="10"
     guidetolerance="10"
     inkscape:pageopacity="0"
     inkscape:pageshadow="2"
     inkscape:window-width="1085"
     inkscape:window-height="480"
     id="namedview8"
     showgrid="false"
     inkscape:zoom="4.9166667"
     inkscape:cx="2.1355932"
     inkscape:cy="24"
     inkscape:window-x="0"
     inkscape:window-y="25"
     inkscape:window-maximized="0"
     inkscape:current-layer="svg6" />
  <path
     d="m 6.344,0.07 a 6.29,6.29 0 0 0 -6.29,6.29 6.29,6.29 0 0 0 6.29,6.288 6.29,6.29 0 0 0 6.29,-6.289 A 6.29,6.29 0 0 0 6.343,0.07 Z M 6.326,1.006 A 5.407,5.407 0 0 1 11.733,6.413 5.407,5.407 0 0 1 6.326,11.82 5.407,5.407 0 0 1 0.92000003,6.413 5.407,5.407 0 0 1 6.327,1.006 Z"
     id="path2"
     inkscape:connector-curvature="0"
     style="fill:#a02c2c" />
  <path
     d="M 2.69,3.65 H 4.231 L 6.388,5.576 8.468,3.65 h 1.541 V 9.043 H 8.47 V 5.96 L 6.544,7.5 H 6.158 L 4.232,5.96 v 3.081 h -1.54 z"
     id="path4"
     inkscape:connector-curvature="0"
     style="opacity:0.75;fill:#800000" />
</svg>
